X:5
T:McCallum's
T: aka Macallum's,The Chapel Bell
R:jig
D: Catherine McEvoy, Castle Ceili Band
N:melodic code 5157 1571
Z:Paul Stewart Cranford (P.S.C.), <http://www.cranfordpub.com>
L:1/8
Q:244
M:6/8
K:Ddor
ADD DE/F/G|AdB c2 e|dcA AGE|c2 e dcA|
ADD DE/F/G|AdB c2 e|dcA AGE|GED D2 z:|
|:Add ded|cde e2d|cAA AGE|c2e dcA|
Add ded|[1cde e2d|cAA AGE|GED D2 z:|
[2cde a2 g|edc AGE|GED D2 z:|
